X:1
T:Title
L:1/8
Q:1/4=90
M:6/8
K:D
V:1 treble nm="Church Organ, Staff"
V:1
 AAF GAF | G A2 B A2 | AEF GAG | F F2- F F2 | AAF GAF | G A2 B A2 | Ade ddc | B B2- B A2 | %8
w: By~A.~Styler~Houghton * * * * *||||||||
 GFD EFG | ABc d c2 | BA^G ABA | ^G =G2- G G2 | GFD EFG | ABc d e2 | dcB AGF | E E2- E D2 |] %16
w: ||||||||

